src/assets/outline/BuyCrypto.svg

<?xml version="1.0" encoding="UTF-8"?>
<svg width="24" height="24" viewBox="0 0 24 24" xmlns="http://www.w3.org/2000/svg">
 <path d="m15.5 15.75c-0.18 0-0.38-0.01-0.56-0.02-0.37-0.02-0.6701-0.32-0.7001-0.69-0.22-2.79-2.4899-5.05-5.2699-5.2701-0.37-0.02999-0.67001-0.32998-0.69001-0.69998-0.01-0.18-0.01998-0.37999-0.01998-0.55999 0-4 3.25-7.25 7.25-7.25s7.25 3.25 7.25 7.25c0 4-3.26 7.24-7.26 7.24zm-5.75-7.3901c2.98 0.53 5.37 2.9101 5.89 5.8901 3.11-0.08 5.61-2.62 5.61-5.75 0-3.17-2.58-5.75-5.75-5.75-3.12 0-5.67 2.5-5.75 5.61z"/>
 <path d="m8.5 22.75c-4 0-7.25-3.25-7.25-7.25s3.25-7.25 7.25-7.25c0.18 0 0.38 0.00999 0.56 0.01999 3.53 0.28 6.39 3.14 6.66 6.65 0.01 0.2 0.02 0.4 0.02 0.58 0.01 4-3.24 7.25-7.24 7.25zm0-13c-3.17 0-5.75 2.58-5.75 5.75s2.58 5.75 5.75 5.75 5.75-2.58 5.75-5.75c0-0.16-0.01-0.32-0.02-0.48-0.22-2.77-2.49-5.04-5.27-5.26-0.14 0-0.29999-0.01001-0.45999-0.01001z"/>
 <path d="m8.5 18.75c-0.27 0-0.53-0.1501-0.66-0.3901l-0.78-1.4199-1.42-0.78c-0.24-0.13-0.39001-0.38-0.39001-0.66s0.15001-0.53 0.39001-0.66l1.42-0.78 0.78-1.42c0.26-0.48 1.05-0.48 1.32 0l0.78 1.42 1.42 0.78c0.24 0.13 0.39 0.38 0.39 0.66s-0.15 0.53-0.39 0.66l-1.42 0.78-0.78 1.4199c-0.13 0.24-0.39 0.3901-0.66 0.3901zm-0.94-3.25 0.41 0.23c0.13 0.07 0.22999 0.17 0.29999 0.3l0.23001 0.41 0.23001-0.41c0.07-0.13 0.16999-0.23 0.29999-0.3l0.41-0.23-0.41-0.2301c-0.13-0.07-0.22999-0.1699-0.29999-0.2999l-0.23001-0.41-0.23001 0.41c-0.07 0.13-0.16999 0.2299-0.29999 0.2999l-0.41 0.2301z"/>
</svg>

<svg width="24" height="24" viewBox="0 0 24 24"  xmlns="http://www.w3.org/2000/svg">
<path d="M15.4998 15.7498C15.3198 15.7498 15.1198 15.7398 14.9398 15.7298C14.5698 15.7098 14.2697 15.4098 14.2397 15.0398C14.0197 12.2498 11.7498 9.98975 8.96976 9.76974C8.59976 9.73975 8.29975 9.43976 8.27975 9.06976C8.26975 8.88976 8.25977 8.68977 8.25977 8.50977C8.25977 4.50977 11.5098 1.25977 15.5098 1.25977C19.5098 1.25977 22.7598 4.50977 22.7598 8.50977C22.7598 12.5098 19.4998 15.7498 15.4998 15.7498ZM9.74976 8.35974C12.7298 8.88974 15.1198 11.2698 15.6398 14.2498C18.7498 14.1698 21.2498 11.6298 21.2498 8.49976C21.2498 5.32976 18.6698 2.74976 15.4998 2.74976C12.3798 2.74976 9.82976 5.24974 9.74976 8.35974Z" />
<path d="M8.5 22.75C4.5 22.75 1.25 19.5 1.25 15.5C1.25 11.5 4.5 8.25 8.5 8.25C8.68 8.25 8.88 8.25999 9.06 8.26999C12.59 8.54999 15.45 11.41 15.72 14.92C15.73 15.12 15.74 15.32 15.74 15.5C15.75 19.5 12.5 22.75 8.5 22.75ZM8.5 9.75C5.33 9.75 2.75 12.33 2.75 15.5C2.75 18.67 5.33 21.25 8.5 21.25C11.67 21.25 14.25 18.67 14.25 15.5C14.25 15.34 14.24 15.18 14.23 15.02C14.01 12.25 11.74 9.98001 8.95999 9.76001C8.81999 9.76001 8.66 9.75 8.5 9.75Z" />
<path d="M8.5 18.7503C8.23 18.7503 7.97 18.6002 7.84 18.3602L7.06 16.9403L5.64001 16.1603C5.40001 16.0303 5.25 15.7803 5.25 15.5003C5.25 15.2203 5.40001 14.9703 5.64001 14.8403L7.06 14.0603L7.84 12.6403C8.1 12.1603 8.89 12.1603 9.16 12.6403L9.94 14.0603L11.36 14.8403C11.6 14.9703 11.75 15.2203 11.75 15.5003C11.75 15.7803 11.6 16.0303 11.36 16.1603L9.94 16.9403L9.16 18.3602C9.03 18.6002 8.77 18.7503 8.5 18.7503ZM7.56 15.5003L7.97 15.7303C8.1 15.8003 8.19999 15.9003 8.26999 16.0303L8.5 16.4403L8.73001 16.0303C8.80001 15.9003 8.9 15.8003 9.03 15.7303L9.44 15.5003L9.03 15.2702C8.9 15.2002 8.80001 15.1003 8.73001 14.9703L8.5 14.5603L8.26999 14.9703C8.19999 15.1003 8.1 15.2002 7.97 15.2702L7.56 15.5003Z" />
</svg>
